src/assets/outline/Scissor1.svg

<svg width="24" height="24" viewBox="0 0 24 24"  xmlns="http://www.w3.org/2000/svg">
<path d="M15 22.75H9C3.57 22.75 1.25 20.43 1.25 15V9C1.25 3.57 3.57 1.25 9 1.25H15C20.43 1.25 22.75 3.57 22.75 9V15C22.75 20.43 20.43 22.75 15 22.75ZM9 2.75C4.39 2.75 2.75 4.39 2.75 9V15C2.75 19.61 4.39 21.25 9 21.25H15C19.61 21.25 21.25 19.61 21.25 15V9C21.25 4.39 19.61 2.75 15 2.75H9Z" />
<path d="M8.41998 11.65C6.94998 11.65 5.75 10.45 5.75 8.98004C5.75 7.51004 6.94998 6.30005 8.41998 6.30005C9.88998 6.30005 11.09 7.50004 11.09 8.98004C11.09 10.46 9.89998 11.65 8.41998 11.65ZM8.41998 7.80005C7.76998 7.80005 7.25 8.33004 7.25 8.98004C7.25 9.63004 7.77998 10.15 8.41998 10.15C9.05998 10.15 9.59003 9.62004 9.59003 8.98004C9.59003 8.34004 9.06998 7.80005 8.41998 7.80005Z" />
<path d="M8.41998 17.7001C6.94998 17.7001 5.75 16.5001 5.75 15.0201C5.75 13.5401 6.94998 12.3501 8.41998 12.3501C9.88998 12.3501 11.09 13.5501 11.09 15.0201C11.09 16.4901 9.89998 17.7001 8.41998 17.7001ZM8.41998 13.8501C7.76998 13.8501 7.25 14.3801 7.25 15.0201C7.25 15.6601 7.77998 16.2001 8.41998 16.2001C9.05998 16.2001 9.59003 15.6701 9.59003 15.0201C9.59003 14.3701 9.06998 13.8501 8.41998 13.8501Z" />
<path d="M10.1599 14.94C9.92991 14.94 9.70993 14.84 9.55993 14.64C9.30993 14.31 9.37996 13.84 9.70996 13.59L17.0499 8.09998C17.3799 7.84998 17.8499 7.91998 18.0999 8.24998C18.3499 8.57998 18.2799 9.04998 17.9499 9.29998L10.6099 14.79C10.4699 14.89 10.3199 14.94 10.1599 14.94Z" />
<path d="M17.4999 16.0301C17.3399 16.0301 17.1899 15.9801 17.0499 15.8801L9.70996 10.3901C9.37996 10.1401 9.30993 9.67006 9.55993 9.34006C9.80993 9.01006 10.2799 8.94007 10.6099 9.19007L17.9499 14.6801C18.2799 14.9301 18.3499 15.4001 18.0999 15.7301C17.9499 15.9301 17.7299 16.0301 17.4999 16.0301Z" />
</svg>

<?xml version="1.0" encoding="UTF-8"?>
<svg width="24" height="24" viewBox="0 0 24 24" xmlns="http://www.w3.org/2000/svg">
 <path d="m15 22.75h-6c-5.43 0-7.75-2.32-7.75-7.75v-6c0-5.43 2.32-7.75 7.75-7.75h6c5.43 0 7.75 2.32 7.75 7.75v6c0 5.43-2.32 7.75-7.75 7.75zm-6-20c-4.61 0-6.25 1.64-6.25 6.25v6c0 4.61 1.64 6.25 6.25 6.25h6c4.61 0 6.25-1.64 6.25-6.25v-6c0-4.61-1.64-6.25-6.25-6.25h-6z"/>
 <path d="m8.42 11.65c-1.47 0-2.67-1.2-2.67-2.67 0-1.47 1.2-2.68 2.67-2.68s2.67 1.2 2.67 2.68c0 1.48-1.19 2.67-2.67 2.67zm0-3.85c-0.65 0-1.17 0.52999-1.17 1.18s0.52998 1.17 1.17 1.17 1.17-0.52996 1.17-1.17-0.52005-1.18-1.17-1.18z"/>
 <path d="m8.42 17.7c-1.47 0-2.67-1.2-2.67-2.68s1.2-2.67 2.67-2.67 2.67 1.2 2.67 2.67-1.19 2.68-2.67 2.68zm0-3.85c-0.65 0-1.17 0.53-1.17 1.17s0.52998 1.18 1.17 1.18 1.17-0.53 1.17-1.18-0.52005-1.17-1.17-1.17z"/>
 <path d="m10.16 14.94c-0.22999 0-0.44997-0.1-0.59997-0.3-0.25-0.33-0.17997-0.8 0.15003-1.05l7.3399-5.49c0.33-0.25 0.8-0.18 1.05 0.15s0.18 0.8-0.15 1.05l-7.34 5.49c-0.14 0.1-0.29 0.15-0.45 0.15z"/>
 <path d="m17.5 16.03c-0.16 0-0.31-0.05-0.45-0.15l-7.3399-5.49c-0.33-0.25-0.40003-0.72004-0.15003-1.05s0.71997-0.39999 1.05-0.14999l7.34 5.49c0.33 0.25 0.4 0.72 0.15 1.05-0.15 0.2-0.37 0.3-0.6 0.3z"/>
</svg>
